Yaru++/mimetypes/scalable/text-x-fortran.svg

<svg height="256" viewBox="0 0 67.73 67.73" width="256" xmlns="http://www.w3.org/2000/svg" xmlns:xlink="http://www.w3.org/1999/xlink"><radialGradient id="a" cx="179.99261" cy="103.2822" gradientTransform="matrix(1.3687341 -.00000021 .0000002 1.3528551 -121.02851 -70.900578)" gradientUnits="userSpaceOnUse" r="35.068905"><stop offset="0"/><stop offset="1" stop-opacity="0"/></radialGradient><filter id="b" color-interpolation-filters="sRGB" height="1.144" width="1.144" x="-.072" y="-.072"><feGaussianBlur stdDeviation="1.98"/></filter><linearGradient id="c" gradientTransform="matrix(0 -.11988342 .11987999 0 .362762 62.7494)" gradientUnits="userSpaceOnUse" x1="529.65515" x2="-35.310345" y1="401.58368" y2="119.09284"><stop offset="0" stop-color="#f2f2f2"/><stop offset="1" stop-color="#f9f9f9"/></linearGradient><linearGradient id="d" gradientUnits="userSpaceOnUse" x1="88" x2="488" y1="88" y2="488"><stop offset="0" stop-opacity=".588235"/><stop offset=".88" stop-opacity="0"/><stop offset="1"/></linearGradient><filter id="e" color-interpolation-filters="sRGB" height="1.087725" width="1.105998" x="-.052999" y="-.043863"><feGaussianBlur stdDeviation="8.4801079"/></filter><filter id="f" color-interpolation-filters="sRGB" height="1.021931" width="1.0265" x="-.01325" y="-.010966"><feGaussianBlur stdDeviation="2.120027"/></filter><path d="m20.703991 3.4856497c-9.338465 0-10.343273.9591779-10.297505 10.3165313v19.315345 19.315344c-.04577 9.357355.95904 10.316531 10.297505 10.316531h25.969365c9.338465 0 10.297506-.959068 10.297506-10.316531v-19.315344-12.699376l-16.9325-16.9325003z" fill="none" opacity=".2" stroke="#000" stroke-width="1.058281"/><path d="m189.84323 74c-70.59344 0-78.18921 7.250835-77.84323 77.98706v146.01294 146.01294c-.34598 70.73623 7.24979 77.98706 77.84323 77.98706h196.31354c70.59344 0 76.00668-7.27384 77.84323-77.98706v-146.01294-98l-128-126z" filter="url(#f)" opacity=".1" transform="matrix(.13228516 0 0 .13228516 -4.409451 -6.038882)"/><path d="m189.84323 74c-70.59344 0-78.18921 7.250835-77.84323 77.98706v146.01294 146.01294c-.34598 70.73623 7.24979 77.98706 77.84323 77.98706h196.31354c70.59344 0 77.84323-7.24999 77.84323-77.98706v-146.01294-96l-128-128z" fill="url(#d)" filter="url(#e)" opacity=".3" transform="matrix(.13228516 0 0 .13228516 -4.409451 -6.038882)"/><path d="m20.703991 3.4856497c-9.338465 0-10.343273.9591779-10.297505 10.3165313v19.315345 19.315344c-.04577 9.357355.95904 10.316531 10.297505 10.316531h25.969365c9.338465 0 10.297506-.959068 10.297506-10.316531v-19.315344-12.699376l-16.9325-16.9325003z" fill="url(#c)"/><path d="m20.70406 3.4856497c-9.338467 0-10.343342.9593396-10.297574 10.3166923v.529141c-.045768-9.3573534.959107-10.3166927 10.297574-10.3166927h19.334302v-.5291406z" fill="#fff" opacity=".6"/><path d="m19.931017 25.712337v2.116563h1.587422c.734678 0 1.33431-.04872 1.918135.138487.583825.18721 1.053966.69868 1.293397 1.461854.478851 1.526349.490095 4.273734.491418 10.053672-.000794 2.199828-.01463 3.855964-.04702 5.278487h.02429l-.0083.537409c-.03551 2.24898-.100701 4.529666-.229949 5.313625-.12925.783961-.396337 1.1965-.647991 1.48666-.283495.326869-.617464.617613-1.064482.808177-.447021.190568-.981911.284564-1.703688.319863-.745408.03645-1.235662.0114-1.613259 0v2.117079h14.815979v-2.117079c-.386017.0094-.899738.03002-1.609641 0-1.320145-.05584-2.077962-.458497-2.663274-1.043814-.393855-.393858-.668466-.928428-.803529-1.773963-.135076-.845535-.182575-3.112294-.214976-5.110032v-.0047-1.062414-2.645703h1.587421c2.167853 0 3.944795.47864 4.95966 1.798769l.03514.04599.02479.05271c.693587 1.485678.765032 3.065991.777176 4.452221h.817493 1.322851v-7.672498-.264571-5.820547h-1.322851-.794227l-.0011.611303c-.0011 1.631986-.590161 2.880785-1.643231 3.639908-1.053043.759124-2.57183 1.574834-4.175743 1.040196h-1.587379v-4.762266-3.174844-3.703984h4.762265c4.201443 0 5.997106-.03042 7.147532.641789l.04547.02687.03979.03514c1.352536 1.206597 2.082666 2.500296 2.445209 3.877609.320604 1.217984.357117 2.506476.363784 3.884842h2.12845v-10.582813z" fill="#aea795" stroke-width=".317928"/><g fill="#fff"><path d="m33.688674 3.4856497v59.2637513h12.984614c9.338464 0 10.054627-.962123 10.297574-10.316435v-19.31544-12.699376l-16.9325-16.9325003z" opacity=".1"/><path d="m10.406486 33.117526v19.31544c-.04577 9.357354.959108 10.316435 10.297574 10.316435h25.969228c9.338464 0 10.054627-.962123 10.297574-10.316435v-19.31544z" opacity=".2"/><path d="m41.096643 62.749401 15.874219-15.874219v5.948567c-.01384 8.994282-1.006077 9.925652-10.099734 9.925652z" opacity=".4"/></g><path d="m185.33354 74.825228-66-65.9999998.003 24.9985698v1 .53711c0 35.29429 3.62603 39.63197 38.99414 39.45899z" fill="url(#a)" filter="url(#b)" opacity=".2" transform="matrix(.26457031 0 0 .26457031 7.937109 1.150756)"/><path d="m56.970862 20.947291v-.529141l-16.9325-16.9325003h-.529141v6.6140183.264571.142103c0 9.118097 1.587422 10.440949 10.316692 10.439679z" opacity=".15"/><path d="m56.970086 20.41674-16.930949-16.9309517v6.0846013.26457.142104c0 9.3378204.95934 10.4854424 10.316692 10.4396764z" fill="#faf8f6"/></svg>

<?xml version="1.0" encoding="UTF-8" standalone="no"?>
<svg
   xmlns:dc="http://purl.org/dc/elements/1.1/"
   xmlns:cc="http://creativecommons.org/ns#"
   xmlns:rdf="http://www.w3.org/1999/02/22-rdf-syntax-ns#"
   xmlns:svg="http://www.w3.org/2000/svg"
   xmlns="http://www.w3.org/2000/svg"
   xmlns:xlink="http://www.w3.org/1999/xlink"
   xmlns:sodipodi="http://sodipodi.sourceforge.net/DTD/sodipodi-0.dtd"
   xmlns:inkscape="http://www.inkscape.org/namespaces/inkscape"
   height="256"
   viewBox="0 0 67.73 67.73"
   width="256"
   version="1.1"
   id="svg39"
   sodipodi:docname="text-x-fortran.svg"
   inkscape:version="0.92.5 (2060ec1f9f, 2020-04-08)">
  <metadata
     id="metadata45">
    <rdf:RDF>
      <cc:Work
         rdf:about="">
        <dc:format>image/svg+xml</dc:format>
        <dc:type
           rdf:resource="http://purl.org/dc/dcmitype/StillImage" />
      </cc:Work>
    </rdf:RDF>
  </metadata>
  <defs
     id="defs43">
    <radialGradient
       inkscape:collect="always"
       xlink:href="#linearGradient1750"
       id="radialGradient1752"
       cx="179.99261"
       cy="103.2822"
       fx="179.99261"
       fy="103.2822"
       r="35.068905"
       gradientTransform="matrix(1.3687341,-2.0954866e-7,2.0316901e-7,1.3528551,-121.02851,-70.900578)"
       gradientUnits="userSpaceOnUse" />
    <linearGradient
       inkscape:collect="always"
       id="linearGradient1750">
      <stop
         style="stop-color:#000000;stop-opacity:1;"
         offset="0"
         id="stop1746" />
      <stop
         style="stop-color:#000000;stop-opacity:0;"
         offset="1"
         id="stop1748" />
    </linearGradient>
    <filter
       inkscape:collect="always"
       style="color-interpolation-filters:sRGB"
       id="filter2553"
       x="-0.071999997"
       width="1.1440001"
       y="-0.071999997"
       height="1.1440001">
      <feGaussianBlur
         inkscape:collect="always"
         stdDeviation="1.98"
         id="feGaussianBlur2555" />
    </filter>
    <linearGradient
       gradientUnits="userSpaceOnUse"
       y2="119.09284"
       x2="-35.310345"
       y1="401.58368"
       x1="529.65515"
       id="linearGradient4226"
       xlink:href="#linearGradient4338"
       inkscape:collect="always"
       gradientTransform="matrix(0,-0.11988342,0.11987999,0,0.3627617,62.7494)" />
    <linearGradient
       inkscape:collect="always"
       id="linearGradient4338">
      <stop
         style="stop-color:#f2f2f2;stop-opacity:1"
         offset="0"
         id="stop4340" />
      <stop
         style="stop-color:#f9f9f9;stop-opacity:1"
         offset="1"
         id="stop4342" />
    </linearGradient>
    <linearGradient
       inkscape:collect="always"
       xlink:href="#linearGradient4360"
       id="linearGradient4358"
       x1="88"
       y1="88"
       x2="488"
       y2="488"
       gradientUnits="userSpaceOnUse" />
    <linearGradient
       id="linearGradient4360"
       inkscape:collect="always">
      <stop
         id="stop4362"
         offset="0"
         style="stop-color:#000000;stop-opacity:0.58823532" />
      <stop
         style="stop-color:#000000;stop-opacity:0"
         offset="0.88"
         id="stop4364" />
      <stop
         id="stop4366"
         offset="1"
         style="stop-color:#000000;stop-opacity:1" />
    </linearGradient>
    <filter
       inkscape:collect="always"
       style="color-interpolation-filters:sRGB"
       id="filter4380"
       x="-0.052999184"
       width="1.1059984"
       y="-0.043862626"
       height="1.0877253">
      <feGaussianBlur
         inkscape:collect="always"
         stdDeviation="8.4801079"
         id="feGaussianBlur4382" />
    </filter>
    <filter
       inkscape:collect="always"
       style="color-interpolation-filters:sRGB"
       id="filter4346"
       x="-0.013249796"
       width="1.0264996"
       y="-0.010965657"
       height="1.0219313">
      <feGaussianBlur
         inkscape:collect="always"
         stdDeviation="2.120027"
         id="feGaussianBlur4348" />
    </filter>
  </defs>
  <sodipodi:namedview
     pagecolor="#ffffff"
     bordercolor="#666666"
     borderopacity="1"
     objecttolerance="10"
     gridtolerance="10"
     guidetolerance="10"
     inkscape:pageopacity="0"
     inkscape:pageshadow="2"
     inkscape:window-width="834"
     inkscape:window-height="480"
     id="namedview41"
     showgrid="false"
     inkscape:zoom="0.921875"
     inkscape:cx="128"
     inkscape:cy="128"
     inkscape:window-x="0"
     inkscape:window-y="28"
     inkscape:window-maximized="0"
     inkscape:current-layer="svg39" />
  <linearGradient
     id="a"
     gradientTransform="matrix(0 -.11988932 .11988589 0 .36278 292.5483)"
     gradientUnits="userSpaceOnUse"
     x1="529.655"
     x2="-35.31"
     y1="401.584"
     y2="119.093">
    <stop
       offset="0"
       stop-color="#f2f2f2"
       id="stop2" />
    <stop
       offset="1"
       stop-color="#f9f9f9"
       id="stop4" />
  </linearGradient>
  <linearGradient
     id="b"
     gradientUnits="userSpaceOnUse"
     x1="88"
     x2="488"
     y1="88"
     y2="488">
    <stop
       offset="0"
       stop-opacity=".588235"
       id="stop7" />
    <stop
       offset=".88"
       stop-opacity="0"
       id="stop9" />
    <stop
       offset="1"
       id="stop11" />
  </linearGradient>
  <filter
     id="c"
     color-interpolation-filters="sRGB"
     height="1.022"
     width="1.026"
     x="-.01"
     y="-.01">
    <feGaussianBlur
       stdDeviation="2.12"
       id="feGaussianBlur14" />
  </filter>
  <path
     sodipodi:nodetypes="scccssscccs"
     inkscape:connector-curvature="0"
     id="path1163"
     d="m 20.703991,3.4856497 c -9.338465,0 -10.343273,0.9591779 -10.297505,10.3165313 V 33.117526 52.43287 c -0.04577,9.357355 0.95904,10.316531 10.297505,10.316531 h 25.969365 c 9.338465,0 10.297506,-0.959068 10.297506,-10.316531 V 33.117526 20.41815 L 40.038362,3.4856497 Z"
     style="color:#000000;display:inline;overflow:visible;visibility:visible;opacity:0.2;fill:none;fill-opacity:1;fill-rule:nonzero;stroke:#000000;stroke-width:1.0582813;stroke-miterlimit:4;stroke-dasharray:none;stroke-opacity:1;marker:none;enable-background:accumulate" />
  <path
     style="color:#000000;display:inline;overflow:visible;visibility:visible;opacity:0.1;fill:#000000;fill-opacity:1;fill-rule:nonzero;stroke:none;stroke-width:2;marker:none;filter:url(#filter4346);enable-background:accumulate"
     d="M 189.84323,74 C 119.24979,74 111.65402,81.250835 112,151.98706 V 298 444.01294 C 111.65402,514.74917 119.24979,522 189.84323,522 H 386.15677 C 456.75021,522 462.16345,514.72616 464,444.01294 V 298 200 L 336,74 Z"
     id="rect4158-9"
     inkscape:connector-curvature="0"
     sodipodi:nodetypes="scccssscccs"
     transform="matrix(0.13228516,0,0,0.13228516,-4.4094514,-6.0388816)" />
  <path
     sodipodi:nodetypes="scccssscccs"
     inkscape:connector-curvature="0"
     id="path4350"
     d="M 189.84323,74 C 119.24979,74 111.65402,81.250835 112,151.98706 V 298 444.01294 C 111.65402,514.74917 119.24979,522 189.84323,522 H 386.15677 C 456.75021,522 464,514.75001 464,444.01294 V 298 202 L 336,74 Z"
     style="color:#000000;display:inline;overflow:visible;visibility:visible;opacity:0.3;fill:url(#linearGradient4358);fill-opacity:1;fill-rule:nonzero;stroke:none;stroke-width:2;marker:none;filter:url(#filter4380);enable-background:accumulate"
     transform="matrix(0.13228516,0,0,0.13228516,-4.4094514,-6.0388816)" />
  <path
     style="color:#000000;display:inline;overflow:visible;visibility:visible;fill:url(#linearGradient4226);fill-opacity:1;fill-rule:nonzero;stroke:none;stroke-width:0.26457033;marker:none;enable-background:accumulate"
     d="m 20.703991,3.4856497 c -9.338465,0 -10.343273,0.9591779 -10.297505,10.3165313 V 33.117526 52.43287 c -0.04577,9.357355 0.95904,10.316531 10.297505,10.316531 h 25.969365 c 9.338465,0 10.297506,-0.959068 10.297506,-10.316531 V 33.117526 20.41815 L 40.038362,3.4856497 Z"
     id="rect4158"
     inkscape:connector-curvature="0"
     sodipodi:nodetypes="scccssscccs" />
  <path
     style="color:#000000;display:inline;overflow:visible;visibility:visible;opacity:0.6;fill:#ffffff;fill-opacity:1;fill-rule:nonzero;stroke:none;stroke-width:0.26457033;marker:none;enable-background:accumulate"
     d="m 20.70406,3.4856497 c -9.338467,0 -10.343342,0.9593396 -10.297574,10.3166923 v 0.529141 C 10.360718,4.9741296 11.365593,4.0147903 20.70406,4.0147903 H 40.038362 V 3.4856497 Z"
     id="path931"
     inkscape:connector-curvature="0"
     sodipodi:nodetypes="sccsccs" />
  <path
     style="display:inline;fill:#aea795;fill-opacity:1;stroke-width:0.31792775;enable-background:new"
     d="M 19.931017,25.712337 V 27.8289 h 1.587422 c 0.734678,0 1.33431,-0.04872 1.918135,0.138487 0.583825,0.18721 1.053966,0.69868 1.293397,1.461854 0.478851,1.526349 0.490095,4.273734 0.491418,10.053672 -7.94e-4,2.199828 -0.01463,3.855964 -0.04702,5.278487 h 0.02429 l -0.0083,0.537409 c -0.03551,2.24898 -0.100701,4.529666 -0.229949,5.313625 -0.12925,0.783961 -0.396337,1.1965 -0.647991,1.48666 -0.283495,0.326869 -0.617464,0.617613 -1.064482,0.808177 -0.447021,0.190568 -0.981911,0.284564 -1.703688,0.319863 -0.745408,0.03645 -1.235662,0.0114 -1.613259,0 v 2.117079 h 14.815979 v -2.117079 c -0.386017,0.0094 -0.899738,0.03002 -1.609641,0 -1.320145,-0.05584 -2.077962,-0.458497 -2.663274,-1.043814 -0.393855,-0.393858 -0.668466,-0.928428 -0.803529,-1.773963 -0.135076,-0.845535 -0.182575,-3.112294 -0.214976,-5.110032 v -0.0047 -1.062414 -2.645703 h 1.587421 c 2.167853,0 3.944795,0.47864 4.95966,1.798769 l 0.03514,0.04599 0.02479,0.05271 c 0.693587,1.485678 0.765032,3.065991 0.777176,4.452221 h 0.817493 1.322851 V 40.2637 39.999129 34.178582 h -1.322851 -0.794227 l -0.0011,0.611303 c -0.0011,1.631986 -0.590161,2.880785 -1.643231,3.639908 -1.053043,0.759124 -2.57183,1.574834 -4.175743,1.040196 h -1.587379 v -4.762266 -3.174844 -3.703984 h 4.762265 c 4.201443,0 5.997106,-0.03042 7.147532,0.641789 l 0.04547,0.02687 0.03979,0.03514 c 1.352536,1.206597 2.082666,2.500296 2.445209,3.877609 0.320604,1.217984 0.357117,2.506476 0.363784,3.884842 h 2.12845 V 25.712332 Z"
     id="path1015-0"
     inkscape:connector-curvature="0"
     sodipodi:nodetypes="ccssccccccccccccccccccccscccccccccccccsccccscccscccc" />
  <path
     style="color:#000000;display:inline;overflow:visible;visibility:visible;opacity:0.1;fill:#ffffff;fill-opacity:1;fill-rule:nonzero;stroke:none;stroke-width:0.26457033;marker:none;enable-background:accumulate"
     d="M 33.688674,3.4856497 V 62.749401 h 12.984614 c 9.338464,0 10.054627,-0.962123 10.297574,-10.316435 V 33.117526 20.41815 L 40.038362,3.4856497 Z"
     id="path4231"
     inkscape:connector-curvature="0"
     sodipodi:nodetypes="ccsscccc" />
  <path
     inkscape:connector-curvature="0"
     style="color:#000000;display:inline;overflow:visible;visibility:visible;opacity:0.2;fill:#ffffff;fill-opacity:1;fill-rule:nonzero;stroke:none;stroke-width:0.26457033;marker:none;enable-background:accumulate"
     d="m 10.406486,33.117526 v 19.31544 c -0.04577,9.357354 0.959108,10.316435 10.297574,10.316435 h 25.969228 c 9.338464,0 10.054627,-0.962123 10.297574,-10.316435 v -19.31544 z"
     id="path4255"
     sodipodi:nodetypes="ccssscc" />
  <path
     style="color:#000000;display:inline;overflow:visible;visibility:visible;opacity:0.4;fill:#ffffff;fill-opacity:1;fill-rule:nonzero;stroke:none;stroke-width:2.11656237;stroke-linecap:butt;stroke-linejoin:miter;stroke-miterlimit:4;stroke-dasharray:none;stroke-dashoffset:0;stroke-opacity:1;marker:none;enable-background:accumulate"
     d="M 41.096643,62.749401 56.970862,46.875182 v 5.948567 c -0.01384,8.994282 -1.006077,9.925652 -10.099734,9.925652 z"
     id="path4254"
     inkscape:connector-curvature="0"
     sodipodi:nodetypes="cccsc" />
  <path
     inkscape:connector-curvature="0"
     style="color:#000000;display:inline;overflow:visible;visibility:visible;opacity:0.2;fill:url(#radialGradient1752);fill-opacity:1;fill-rule:nonzero;stroke:none;stroke-width:1;marker:none;filter:url(#filter2553);enable-background:accumulate"
     d="m 185.33354,74.825228 -66,-65.9999998 0.003,24.9985698 v 1 0.53711 c 0,35.29429 3.62603,39.63197 38.99414,39.45899 z"
     id="rect4158-0-3-6"
     sodipodi:nodetypes="ccccscc"
     transform="matrix(0.26457031,0,0,0.26457031,7.9371086,1.1507563)" />
  <path
     inkscape:connector-curvature="0"
     style="color:#000000;display:inline;overflow:visible;visibility:visible;opacity:0.15;fill:#000000;fill-opacity:1;fill-rule:nonzero;stroke:none;stroke-width:0.26457033;marker:none;enable-background:accumulate"
     d="M 56.970862,20.947291 V 20.41815 L 40.038362,3.4856497 h -0.529141 v 6.6140183 0.264571 0.142103 c 0,9.118097 1.587422,10.440949 10.316692,10.439679 z"
     id="rect4158-0-3-2"
     sodipodi:nodetypes="ccccccscc" />
  <path
     inkscape:connector-curvature="0"
     style="color:#000000;display:inline;overflow:visible;visibility:visible;fill:#faf8f6;fill-opacity:1;fill-rule:nonzero;stroke:none;stroke-width:0.26457033;marker:none;enable-background:accumulate"
     d="M 56.970086,20.41674 40.039137,3.4857883 v 6.0846013 0.26457 0.142104 c 0,9.3378204 0.95934,10.4854424 10.316692,10.4396764 z"
     id="rect4158-0-3" />
</svg>
